icons/svgs/circle-dot-outline.svg

<svg width="24" height="24" viewBox="0 0 24 24" fill="none" xmlns="http://www.w3.org/2000/svg">
<path d="M20.125 12C20.125 9.10938 18.5625 6.45312 16.0625 4.96875C13.5234 3.52344 10.4375 3.52344 7.9375 4.96875C5.39844 6.45312 3.875 9.10938 3.875 12C3.875 14.9297 5.39844 17.5859 7.9375 19.0703C10.4375 20.5156 13.5234 20.5156 16.0625 19.0703C18.5625 17.5859 20.125 14.9297 20.125 12ZM2 12C2 8.44531 3.875 5.16406 7 3.36719C10.0859 1.57031 13.875 1.57031 17 3.36719C20.0859 5.16406 22 8.44531 22 12C22 15.5938 20.0859 18.875 17 20.6719C13.875 22.4688 10.0859 22.4688 7 20.6719C3.875 18.875 2 15.5938 2 12ZM12 8.25C13.3281 8.25 14.5391 8.99219 15.2422 10.125C15.9062 11.2969 15.9062 12.7422 15.2422 13.875C14.5391 15.0469 13.3281 15.75 12 15.75C10.6328 15.75 9.42188 15.0469 8.71875 13.875C8.05469 12.7422 8.05469 11.2969 8.71875 10.125C9.42188 8.99219 10.6328 8.25 12 8.25Z" fill="black"/>
</svg>

<svg xmlns="http://www.w3.org/2000/svg" width="24" height="24" fill="currentColor" class="icon-circle-dot-outline" viewBox="0 0 24 24">
  <mask id="a" width="20" height="21" x="2" y="2" maskUnits="userSpaceOnUse" style="mask-type:alpha">
    <path d="M20.125 12c0-2.89-1.562-5.547-4.062-7.031-2.54-1.446-5.625-1.446-8.125 0C5.398 6.453 3.875 9.109 3.875 12a8.13 8.13 0 0 0 4.063 7.07c2.5 1.446 5.585 1.446 8.125 0 2.5-1.484 4.062-4.14 4.062-7.07M2 12a9.93 9.93 0 0 1 5-8.633c3.086-1.797 6.875-1.797 10 0 3.086 1.797 5 5.078 5 8.633 0 3.594-1.914 6.875-5 8.672-3.125 1.797-6.914 1.797-10 0C3.875 18.875 2 15.594 2 12m10-3.75c1.328 0 2.54.742 3.242 1.875.664 1.172.664 2.617 0 3.75-.703 1.172-1.914 1.875-3.242 1.875-1.367 0-2.578-.703-3.281-1.875-.664-1.133-.664-2.578 0-3.75C9.422 8.992 10.633 8.25 12 8.25"/>
  </mask>
  <g mask="url(#a)">
    <path d="M0 0h24v24H0z"/>
  </g>
</svg>
